X:48
T: Mumm Aneleis, S.13
N: L0009
O: Luxemburg
S: Die Luxemburger Volkslieder lterer Zeit, Luxemburg 1904 posth.]
R: Kinderlied]
M: 2/4
L: 1/16
K: G
d2 | d3cB2d2 | f3cB2
d2 | e2c2A2F2 | G4z2
d2 | d3cB2d2 | d3cB2
d2 | e2c2A2F2 | G2G2G2

@@@ Tune index: 8102
